svg/section-house-and-home.svg

<svg xmlns="http://www.w3.org/2000/svg" width="100" height="100" viewBox="0 0 100 100"><path d="M97.746 51.26c.222.253.301.464.229.631-.069.167-.271.25-.605.25h-14.882v38.897c0 .336-.12.615-.355.84-.239.222-.525.334-.859.334h-12.955v-27.077c0-.336-.11-.615-.334-.838-.225-.224-.504-.337-.838-.337h-11.779c-.334 0-.613.113-.838.337-.225.223-.337.502-.337.838v27.077h-36.465c-.335 0-.615-.112-.838-.334-.225-.225-.335-.504-.335-.84v-38.897h-14.922c-.335 0-.539-.083-.609-.25-.069-.167.007-.378.231-.631l47.449-44.305c.838-.223 1.369-.223 1.592 0l12.532 11.694v-3.437c0-.335.112-.614.337-.838.222-.224.501-.335.838-.335h15.298c.337 0 .616.111.841.335.222.224.334.502.334.838v19.911l17.27 16.137zm-55.497 25.654v-11.779c0-.336-.113-.615-.335-.838-.224-.224-.502-.337-.838-.337h-11.779c-.309 0-.581.113-.818.337-.238.223-.357.502-.357.838v11.779c0 .306.119.578.357.816.237.236.509.355.818.355h11.778c.335 0 .614-.119.838-.355.223-.238.336-.51.336-.816z"/></svg>

<?xml version="1.0" encoding="utf-8"?>
<!-- Generator: Adobe Illustrator 13.0.0, SVG Export Plug-In . SVG Version: 6.00 Build 14948)  -->
<!DOCTYPE svg PUBLIC "-//W3C//DTD SVG 1.1//EN" "http://www.w3.org/Graphics/SVG/1.1/DTD/svg11.dtd">
<svg version="1.1" id="Layer_1" xmlns="http://www.w3.org/2000/svg" xmlns:xlink="http://www.w3.org/1999/xlink" x="0px" y="0px"
	 width="100px" height="100px" viewBox="0 0 100 100" enable-background="new 0 0 100 100" xml:space="preserve">
<g>
	<path d="M97.746,51.26c0.222,0.253,0.301,0.464,0.229,0.631c-0.069,0.167-0.271,0.25-0.605,0.25H82.488v38.897
		c0,0.336-0.12,0.615-0.355,0.84c-0.239,0.222-0.525,0.334-0.859,0.334H68.319V65.135c0-0.336-0.11-0.615-0.334-0.838
		c-0.225-0.224-0.504-0.337-0.838-0.337H55.368c-0.334,0-0.613,0.113-0.838,0.337c-0.225,0.223-0.337,0.502-0.337,0.838v27.077
		H17.728c-0.335,0-0.615-0.112-0.838-0.334c-0.225-0.225-0.335-0.504-0.335-0.84V52.141H1.633c-0.335,0-0.539-0.083-0.609-0.25
		c-0.069-0.167,0.007-0.378,0.231-0.631L48.704,6.955c0.838-0.223,1.369-0.223,1.592,0l12.532,11.694v-3.437
		c0-0.335,0.112-0.614,0.337-0.838c0.222-0.224,0.501-0.335,0.838-0.335h15.298c0.337,0,0.616,0.111,0.841,0.335
		c0.222,0.224,0.334,0.502,0.334,0.838v19.911L97.746,51.26z M42.249,76.914V65.135c0-0.336-0.113-0.615-0.335-0.838
		c-0.224-0.224-0.502-0.337-0.838-0.337H29.297c-0.309,0-0.581,0.113-0.818,0.337c-0.238,0.223-0.357,0.502-0.357,0.838v11.779
		c0,0.306,0.119,0.578,0.357,0.816c0.237,0.236,0.509,0.355,0.818,0.355h11.778c0.335,0,0.614-0.119,0.838-0.355
		C42.136,77.492,42.249,77.22,42.249,76.914z"/>
</g>
</svg>
